X: 1
T: Famous Ballymote, The
M: 4/4
L: 1/8
R: reel
K: Dmix
FDAD FAAB|cABG EFGE|FDAD FAAB|cAGE ED D2:||
FDFA d2 ed|cABG EFGE|FDFA d2 ed|cAGE ED D2:||
